X: 21959
T: Kitty Lie Over
R: jig
M: 6/8
K: Dmajor
|:B|AFD DFA|BdB AFA|ABA G2 F|GEE E2 B|
AFD DFA|BdB AFA|ABA GFE|FDD D2:|
|:e|fdd d2 e|fdd d2 e|fdc def|g2 f e2 g|
fed B2 d|BAG F3|ABA GFE|FDD D2:|

